static/assets/template/assets/img/icons/essential/detailed/Bottle_1.svg

<svg height="149" viewBox="0 0 151 149" width="151" xmlns="http://www.w3.org/2000/svg"><g fill="none" fill-rule="evenodd" transform="translate(2 1)"><g stroke-linecap="round" stroke-linejoin="round" stroke-width="3" transform="translate(0 144)"><path d="m1.3.9h-1.2"/><path d="m36 .9h-29.8"/><path d="m42.4.9h-1.1"/><path d="m135.2.9h-86.2"/><path d="m140.9.9h-1.9"/><path d="m146.6.9h-.4"/></g><path d="m104.2 91.3v2.3.2 8.1.6 22.4 7 4.8c0 6.4-2.3 8.7-8.7 8.7-6.2 0-12.5 0-18.7 0-5.1 0-10.2 0-15.3 0-2.3 0-4.7 0-7 0-6.4 0-8.7-2.3-8.7-8.7 0-7.8 0-15.5 0-23.3 0-7.9 0-15.7 0-23.6 0-2.6.7-4.7 2.4-6.7 3.6-4 3.6-7.1.3-11.2-2.9-3.6-2.8-6.9.3-10.4 3.2-3.6 3.3-5.1-.1-8.3-2.8-2.6-3.2-5.4-2.4-8.9 5.2-22.4 31.1-31 48.4-15.8 5.5 4.9 8.5 11.3 9.4 18.5.2 1.5-.8 3.3-1.6 4.8 0 .1-.1.1-.1.2-.6.9-1.5 1.6-2.2 2.4-1.6 1.9-1.6 4 0 5.9 0 0 0 0 .1.1 3.2 3.6 4.2 5.7 3.1 8.5-.5 1.2-1.4 2.6-2.7 4.2-1.7 2.1-2 4.7-.7 7.3.4.7.9 1.5 1.5 2.2 2.2 2.5 2.8 5.4 2.7 8.7z" fill-rule="nonzero"/><path d="m101 42.3c-.1-.1.1-.2.2-.2-.1.1-.1.1-.2.2z" fill="#bad8ff" fill-rule="nonzero"/><path d="m101.7 51.2c.2.3.4.5.6.8-.2-.2-.8-.5-.6-.8z" fill="#bad8ff" fill-rule="nonzero"/><path d="m104.2 94.2v16.7 14 7 5.3c0 6-2 8.2-7.5 8.3-6.7 0-13.3 0-20 0-5.1 0-10.2 0-15.3 0-5.5 0-7.5-2.2-7.5-8.3 0-10.1 0-32.7 0-34.1.1 5.6 2.1 7.7 7.5 7.7h35.3c5.5 0 7.5-2.2 7.5-8.2v-9.6.7.2z" fill-rule="nonzero"/><path d="m54 99.6v3.4c0-.2 0-.3 0-.5z" fill-rule="nonzero"/><path d="m104.2 92.9v9.6c0 6-2 8.2-7.5 8.2-11.8 0-23.5 0-35.3 0-5.3 0-7.3-2.1-7.5-7.7 0 0 0 0 0-.1 0-.2 0-.3 0-.5v-10.3c.1-2.1.7-3.9 2.1-5.6 3.1-3.8 3.1-6.7.2-10.6-2.5-3.4-2.4-6.6.3-9.9 2.7-3.4 2.9-4.8-.1-7.8-1-1.1-1.7-2.2-2-3.3.3-1.1.9-2.1 1.7-3.1 2.3-2.8 2.9-5.1 1.9-7.7-.5-1.4-.5-2.9.3-4.2 8.2-13.5 25.5-16.9 37.8-5 2.2 2.1 3.9 4.5 5.2 7.2 0 .1-.2.2-.2.2 2.7 2.4 3.8 5.7.7 8.9-.2.2.4.5.6.8-.6.9-1.5 1.6-2.2 2.4-1.6 1.9-1.6 4 0 5.9-.8 1.6 1.2 2.4 2.4 3.9s.2 3.5.7 4.6c-.5 1.2-1.4 2.6-2.7 4.2-1.7 2.1-2 4.7-.7 7.3-.2 1.9.4 3.8 1.9 5.6 1.7 2.1 2.3 4.4 2.4 7z" fill-rule="nonzero"/><path d="m89.4 9.3v5.5h-28.9v-5.5c0-4.8 3.9-8.7 8.7-8.7h11.5c4.8 0 8.7 3.9 8.7 8.7z" fill-rule="nonzero"/><g stroke-width="3"><path d="m89.4 10.8v4h-23.9v-4c0-3.5 3.2-6.3 7.2-6.3h9.5c4 .1 7.2 2.9 7.2 6.3z" fill-rule="nonzero"/><path d="m54.3 29.4c.1-.1.2-.2.3-.3" stroke-linecap="round" stroke-linejoin="round"/><path d="m59.1 25.6c10.4-6.8 24.7-6.6 35.6 3 5.5 4.9 8.5 11.3 9.4 18.5.2 1.5-.8 3.3-1.6 4.8 0 .1-.1.1-.1.2-.6.9-1.5 1.6-2.2 2.4-1.6 1.9-1.6 4 0 5.9 0 0 0 0 .1.1 3.2 3.6 4.2 5.7 3.1 8.5-.5 1.2-1.4 2.6-2.7 4.2-1.7 2.1-2 4.7-.7 7.3.4.7.9 1.5 1.5 2.2 2.4 2.6 3 5.5 3 8.8v2.3.2 8.1.6 22.4 7 4.8c0 6.4-2.3 8.7-8.7 8.7-6.2 0-12.5 0-18.7 0-5.1 0-10.2 0-15.3 0-2.3 0-4.7 0-7 0-6.4 0-8.7-2.3-8.7-8.7 0-7.8 0-15.5 0-23.3 0-7.9 0-15.7 0-23.6 0-2.6.7-4.7 2.4-6.7 3.6-4 3.6-7.1.3-11.2-2.9-3.6-2.8-6.9.3-10.4 3.2-3.6 3.3-5.1-.1-8.3-2.8-2.6-3.2-5.4-2.4-8.9.8-3.4 2.1-6.5 3.7-9.3" stroke-linecap="round" stroke-linejoin="round"/><path d="m79.1.6h1.6c4.8 0 8.7 3.9 8.7 8.7v5.5h-28.9v-5.5c0-4.5 3.4-8.2 7.7-8.6" stroke-linecap="round" stroke-linejoin="round"/><path d="m72.8.6h.3" stroke-linecap="round" stroke-linejoin="round"/><path d="m56.4 56.5h12.2" stroke-linecap="round" stroke-linejoin="round"/><path d="m70.2 76.2h-.4" stroke-linecap="round" stroke-linejoin="round"/><path d="m99.1 76.2h-19.5" stroke-linecap="round" stroke-linejoin="round"/></g></g></svg>

<?xml version="1.0" encoding="UTF-8"?>
<svg width="151px" height="149px" viewBox="0 0 151 149" version="1.1" xmlns="http://www.w3.org/2000/svg" xmlns:xlink="http://www.w3.org/1999/xlink">
    <!-- Generator: Sketch 51.2 (57519) - http://www.bohemiancoding.com/sketch -->
    <title>Bottle_1</title>
    <desc>Created with Sketch.</desc>
    <defs></defs>
    <g id="Page-1" stroke="none" stroke-width="1" fill="none" fill-rule="evenodd">
        <g id="Bottle_1" transform="translate(2.000000, 1.000000)">
            <g id="Group" transform="translate(0.000000, 144.000000)" class="stroke-primary-300" stroke-linecap="round" stroke-linejoin="round" stroke-width="3">
                <path d="M1.3,0.9 L0.1,0.9" id="Shape"></path>
                <path d="M36,0.9 L6.2,0.9" id="Shape"></path>
                <path d="M42.4,0.9 L41.3,0.9" id="Shape"></path>
                <path d="M135.2,0.9 L49,0.9" id="Shape"></path>
                <path d="M140.9,0.9 L139,0.9" id="Shape"></path>
                <path d="M146.6,0.9 L146.2,0.9" id="Shape"></path>
            </g>
            <path d="M104.2,91.3 C104.2,92.1 104.2,92.8 104.2,93.6 L104.2,93.8 C104.2,96.5 104.2,99.2 104.2,101.9 L104.2,102.5 C104.2,110 104.2,117.5 104.2,124.9 C104.2,127.2 104.2,129.5 104.2,131.9 L104.2,136.7 C104.2,143.1 101.9,145.4 95.5,145.4 C89.3,145.4 83,145.4 76.8,145.4 C71.7,145.4 66.6,145.4 61.5,145.4 C59.2,145.4 56.8,145.4 54.5,145.4 C48.1,145.4 45.8,143.1 45.8,136.7 C45.8,128.9 45.8,121.2 45.8,113.4 C45.8,105.5 45.8,97.7 45.8,89.8 C45.8,87.2 46.5,85.1 48.2,83.1 C51.8,79.1 51.8,76 48.5,71.9 C45.6,68.3 45.7,65 48.8,61.5 C52,57.9 52.1,56.4 48.7,53.2 C45.9,50.6 45.5,47.8 46.3,44.3 C51.5,21.9 77.4,13.3 94.7,28.5 C100.2,33.4 103.2,39.8 104.1,47 C104.3,48.5 103.3,50.3 102.5,51.8 C102.5,51.9 102.4,51.9 102.4,52 C101.8,52.9 100.9,53.6 100.2,54.4 C98.6,56.3 98.6,58.4 100.2,60.3 C100.2,60.3 100.2,60.3 100.3,60.4 C103.5,64 104.5,66.1 103.4,68.9 C102.9,70.1 102,71.5 100.7,73.1 C99,75.2 98.7,77.8 100,80.4 C100.4,81.1 100.9,81.9 101.5,82.6 C103.7,85.1 104.3,88 104.2,91.3 Z" id="Shape" class="fill-neutral" fill-rule="nonzero"></path>
            <path d="M101,42.3 C100.9,42.2 101.1,42.1 101.2,42.1 C101.1,42.2 101.1,42.2 101,42.3 Z" id="Shape" fill="#BAD8FF" fill-rule="nonzero"></path>
            <path d="M101.7,51.2 C101.9,51.5 102.1,51.7 102.3,52 C102.1,51.8 101.5,51.5 101.7,51.2 Z" id="Shape" fill="#BAD8FF" fill-rule="nonzero"></path>
            <path d="M104.2,94.2 C104.2,99.8 104.2,105.3 104.2,110.9 C104.2,115.6 104.2,120.2 104.2,124.9 C104.2,127.2 104.2,129.5 104.2,131.9 L104.2,137.2 C104.2,143.2 102.2,145.4 96.7,145.5 C90,145.5 83.4,145.5 76.7,145.5 C71.6,145.5 66.5,145.5 61.4,145.5 C55.9,145.5 53.9,143.3 53.9,137.2 C53.9,127.1 53.9,104.5 53.9,103.1 C54,108.7 56,110.8 61.4,110.8 C73.2,110.8 84.9,110.8 96.7,110.8 C102.2,110.8 104.2,108.6 104.2,102.6 L104.2,93 C104.2,93.2 104.2,93.4 104.2,93.7 L104.2,93.9 C104.2,93.9 104.2,94.1 104.2,94.2 Z" id="Shape" class="fill-primary-400" fill-rule="nonzero"></path>
            <path d="M54,99.6 C54,100.7 54,101.8 54,103 C54,102.8 54,102.7 54,102.5 L54,99.6 Z" id="Shape" class="fill-primary-100" fill-rule="nonzero"></path>
            <path d="M104.2,92.9 L104.2,102.5 C104.2,108.5 102.2,110.7 96.7,110.7 C84.9,110.7 73.2,110.7 61.4,110.7 C56.1,110.7 54.1,108.6 53.9,103 C53.9,103 53.9,103 53.9,102.9 C53.9,102.7 53.9,102.6 53.9,102.4 L53.9,92.1 C54,90 54.6,88.2 56,86.5 C59.1,82.7 59.1,79.8 56.2,75.9 C53.7,72.5 53.8,69.3 56.5,66 C59.2,62.6 59.4,61.2 56.4,58.2 C55.4,57.1 54.7,56 54.4,54.9 C54.7,53.8 55.3,52.8 56.1,51.8 C58.4,49 59,46.7 58,44.1 C57.5,42.7 57.5,41.2 58.3,39.9 C66.5,26.4 83.8,23 96.1,34.9 C98.3,37 100,39.4 101.3,42.1 C101.3,42.2 101.1,42.3 101.1,42.3 C103.8,44.7 104.9,48 101.8,51.2 C101.6,51.4 102.2,51.7 102.4,52 C101.8,52.9 100.9,53.6 100.2,54.4 C98.6,56.3 98.6,58.4 100.2,60.3 C99.4,61.9 101.4,62.7 102.6,64.2 C103.8,65.7 102.8,67.7 103.3,68.8 C102.8,70 101.9,71.4 100.6,73 C98.9,75.1 98.6,77.7 99.9,80.3 C99.7,82.2 100.3,84.1 101.8,85.9 C103.5,88 104.1,90.3 104.2,92.9 Z" id="Shape" class="fill-primary-100" fill-rule="nonzero"></path>
            <path d="M89.4,9.3 L89.4,14.8 L60.5,14.8 L60.5,9.3 C60.5,4.5 64.4,0.6 69.2,0.6 L80.7,0.6 C85.5,0.6 89.4,4.5 89.4,9.3 Z" id="Shape" class="fill-neutral" fill-rule="nonzero"></path>
            <path d="M89.4,10.8 L89.4,14.8 L65.5,14.8 L65.5,10.8 C65.5,7.3 68.7,4.5 72.7,4.5 L82.2,4.5 C86.2,4.6 89.4,7.4 89.4,10.8 Z" id="Shape" class="stroke-primary-400" stroke-width="3" class="fill-primary-400" fill-rule="nonzero"></path>
            <path d="M54.3,29.4 C54.4,29.3 54.5,29.2 54.6,29.1" id="Shape" class="stroke-primary" stroke-width="3" stroke-linecap="round" stroke-linejoin="round"></path>
            <path d="M59.1,25.6 C69.5,18.8 83.8,19 94.7,28.6 C100.2,33.5 103.2,39.9 104.1,47.1 C104.3,48.6 103.3,50.4 102.5,51.9 C102.5,52 102.4,52 102.4,52.1 C101.8,53 100.9,53.7 100.2,54.5 C98.6,56.4 98.6,58.5 100.2,60.4 C100.2,60.4 100.2,60.4 100.3,60.5 C103.5,64.1 104.5,66.2 103.4,69 C102.9,70.2 102,71.6 100.7,73.2 C99,75.3 98.7,77.9 100,80.5 C100.4,81.2 100.9,82 101.5,82.7 C103.9,85.3 104.5,88.2 104.5,91.5 C104.5,92.3 104.5,93 104.5,93.8 L104.5,94 C104.5,96.7 104.5,99.4 104.5,102.1 L104.5,102.7 C104.5,110.2 104.5,117.7 104.5,125.1 C104.5,127.4 104.5,129.7 104.5,132.1 L104.5,136.9 C104.5,143.3 102.2,145.6 95.8,145.6 C89.6,145.6 83.3,145.6 77.1,145.6 C72,145.6 66.9,145.6 61.8,145.6 C59.5,145.6 57.1,145.6 54.8,145.6 C48.4,145.6 46.1,143.3 46.1,136.9 C46.1,129.1 46.1,121.4 46.1,113.6 C46.1,105.7 46.1,97.9 46.1,90 C46.1,87.4 46.8,85.3 48.5,83.3 C52.1,79.3 52.1,76.2 48.8,72.1 C45.9,68.5 46,65.2 49.1,61.7 C52.3,58.1 52.4,56.6 49,53.4 C46.2,50.8 45.8,48 46.6,44.5 C47.4,41.1 48.7,38 50.3,35.2" id="Shape" class="stroke-primary" stroke-width="3" stroke-linecap="round" stroke-linejoin="round"></path>
            <path d="M79.1,0.6 L80.7,0.6 C85.5,0.6 89.4,4.5 89.4,9.3 L89.4,14.8 L60.5,14.8 L60.5,9.3 C60.5,4.8 63.9,1.1 68.2,0.7" id="Shape" class="stroke-primary" stroke-width="3" stroke-linecap="round" stroke-linejoin="round"></path>
            <path d="M72.8,0.6 L73.1,0.6" id="Shape" class="stroke-primary" stroke-width="3" stroke-linecap="round" stroke-linejoin="round"></path>
            <path d="M56.4,56.5 L68.6,56.5" id="Shape" class="stroke-primary" stroke-width="3" stroke-linecap="round" stroke-linejoin="round"></path>
            <path d="M70.2,76.2 L69.8,76.2" id="Shape" class="stroke-primary" stroke-width="3" stroke-linecap="round" stroke-linejoin="round"></path>
            <path d="M99.1,76.2 L79.6,76.2" id="Shape" class="stroke-primary" stroke-width="3" stroke-linecap="round" stroke-linejoin="round"></path>
        </g>
    </g>
</svg>
